svg/u1f37d.svg

<svg viewBox="0 0 128 128" xmlns="http://www.w3.org/2000/svg">
  <path d="M120.82,12.53c0,0-0.44-0.81-2.29-0.48c-2.04,0.36-6.41,3.67-7.8,11.84s-2.76,33.42-1.81,35.07 c1.75,3.07,5.34,5.52,5.42,7.25c0.06,1.3-0.34,31.36-0.62,33.51c-0.28,2.14-1.82,7.99-2.02,9.48c-0.19,1.46,0.67,2.6,1.58,2.68 c1.49,0.14,5.97,0.18,5.97,0.18L120.82,12.53z" fill="#9C9C9C"/>
  <path d="M21.64,48.95c0,0-0.45-20.09-0.49-21.03c-0.04-0.77-0.5-1.8-1.69-1.69 c-0.69,0.07-0.92,0.82-0.92,1.53c0,1.23-0.13,16.73-0.11,17.89c0.02,1.68-1.89,1.31-1.85,0.08c0.04-1.23-0.04-17.02-0.1-18.09 c-0.05-0.81-0.46-1.38-1.13-1.38c-0.66,0-1.21,0.47-1.32,1.34c-0.25,1.85-0.19,17.12-0.23,18.24c-0.05,1.38-1.7,1.33-1.7-0.15 s-0.04-16.91-0.04-18.14c0-0.65-0.21-1.44-1.09-1.4c-0.85,0.04-1.11,0.76-1.15,1.3c-0.08,1.15-0.67,16.97-0.72,18 C9,47.07,7.33,47.13,7.33,45.37c0-1.77,0.41-16.41,0.45-17.64c0.03-0.77-0.27-1.65-1.07-1.61c-0.8,0.04-1.26,0.42-1.57,1.65 c-0.32,1.29-0.66,8.77-1.01,13.09c-0.18,2.26-1.24,11.88-0.1,14.41c1.65,3.64,4.88,4.3,4.88,4.3S8.34,95.27,8.02,97.61 c-0.46,3.38-2.36,8.2-2.16,10.66c0.11,1.36,0.97,2.13,2.39,2.2c1.42,0.07,4.26,0.44,5.06,0.22c0.35-0.09,0.49-22.19,0.49-22.19 l0.35-34.72L21.64,48.95z" fill="#9C9C9C"/>
  <path d="M6.12,51.03l15.46,1.85c0,0-0.04,2.91-1.31,4.53c-1.6,2.03-3.45,2.26-3.45,2.26 s-0.21,36.93,0.12,39.51c0.34,2.57,2.52,8.88,1.82,10.23c-0.62,1.19-2.13,1.49-5.4,1.38c-3.44-0.11-4.42-0.03-4.55-2.36 c-0.13-2.33,1.96-6.61,2.06-9.58c0.1-2.97,0.47-40.71,0.47-40.71s-3.74-0.44-5.13-3.64C5.14,52,6.12,51.03,6.12,51.03z" fill="#C8C8C8"/>
  <path d="M118.42,62.2l-5.03-1.09c0,0,3.38,2.84,3.44,5.03c0.07,2.19,0.19,33.11-0.14,34.97 c-0.33,1.86-2.98,8.96-1.77,10.24c0.83,0.87,3.56,0.69,5.08,0.69s2.78-0.07,3.45-0.99c0.66-0.93,0.36-3.41,0.01-5.27 c-0.4-2.16-0.87-4.11-0.87-5.06c0-1.72-1.13-41.82-1.13-41.82L118.42,62.2z" fill="#C8C8C8"/>
  <path d="M120.29,12.33c-1.39,0.04-4.73,1.51-6.51,7.97c-1.39,5.04-1.72,11.09-2.06,21.82 c-0.41,12.91,0.13,16.97,0.53,17.3s6.63,2.92,6.63,2.92l2.58-3.45c0,0-0.4-41.82-0.4-43.54S121.31,12.3,120.29,12.33z" fill="#E0E0E0"/>
  <path d="M5.69,49.05c0,0-0.04,2.98,0,3.26s6.34,0.81,8.82,0.85s7.09-0.25,7.09-0.25s0.08-1,0.08-2.15 c0-1-0.03-1.83-0.03-1.83L5.69,49.05z" fill="#E0E0E0"/>
  <path d="M7.11,55.12c2,0.47,6.35-1.37,5.71-2.09c-0.69-0.78-7.05-1.41-7.13-0.81 C5.61,52.81,6.05,54.87,7.11,55.12z" fill="#FDFDFD"/>
  <path d="M16.57,108.15c0.52-0.96,0.12-3.85-0.12-5.37c-0.24-1.52-0.45-2.7-1.1-2.61 c-0.54,0.08-0.54,0.68-0.54,1.95c0,1.26,0.1,3.31-0.38,3.77c-0.48,0.46-2.23,1.44-2.05,2.39c0.18,0.94,1.42,0.9,2.33,0.86 C15.28,109.11,16.15,108.93,16.57,108.15z" fill="#FDFDFD"/>
  <path d="M121.12,104.02c-0.59-0.04-0.63,1-0.63,2.11c0,1.1-0.33,1.92-0.82,2.25 c-0.49,0.33-1.78,1.02-1.7,1.66c0.08,0.63,0.72,0.78,2.54,0.7c1.82-0.08,1.78-1.37,1.72-2.68S121.98,104.08,121.12,104.02z" fill="#FDFDFD"/>
  <path d="M112.24,59.07c-0.49,0.21,1.01,2.07,2.71,3.53c1.76,1.51,2.5,1.98,4.3,1.88 c1.8-0.1,2.72-4.99,1.6-5.42c-1.13-0.43-1.45,1.36-2.91,1.61C116.49,60.93,113.14,58.68,112.24,59.07z" fill="#FDFDFD"/>
  <path d="M26.99,50.52l75.07-2.5c0,0,12.03,22.02-4.2,44.22c-15.85,21.69-49.16,19.19-63.98,1.41 C17.27,73.71,26.99,50.52,26.99,50.52z" fill="#D4D4D4"/>
  <path d="M63.95,23.89C39.99,24.06,25.66,40.5,25.31,62.18c-0.35,21.86,16.43,42.13,40.56,42.13 c25.18,0,39.34-20.45,39.51-41.96C105.54,43.28,88.77,23.71,63.95,23.89z" fill="#F6F6F6"/>
  <path d="M36.87,62.84l2.25-6.33c0,0,6.17-18.36,25.72-18.26c18.22,0.1,24.97,17.4,24.97,17.4l2.07,6.71 l1.1-3.78l-2.6-9.02l-8.8-10.23l-14.83-4.6l-12.38,1.74L44.24,42.9l-6.75,10.44L36.87,62.84z" fill="#D5D5D5"/>
  <path d="M64.66,92.46c-16.01,0-28.32-11.86-29.41-28.45c-0.52-7.91,2.23-15.48,7.75-21.3 c5.61-5.94,13.49-9.31,21.66-9.22c8.59,0.08,15.97,3.18,21.36,8.96c5.5,5.9,8.36,14.02,7.85,22.26 c-0.97,15.74-12.95,27.4-28.49,27.75C65.13,92.45,64.89,92.46,64.66,92.46z M64.39,35.98c-7.37,0-14.5,3.07-19.58,8.44 c-5.03,5.32-7.54,12.22-7.07,19.42c1.01,15.45,12.58,26.42,27.57,26.1c14.21-0.31,25.16-10.99,26.05-25.4 c0.46-7.45-2.23-15.08-7.18-20.41c-4.91-5.27-11.67-8.09-19.55-8.16C64.55,35.98,64.47,35.98,64.39,35.98z" fill="#FFFFFF"/>
</svg>

<svg viewBox="0 0 128 128" xmlns="http://www.w3.org/2000/svg">
  <defs/>
  <path d="M120.82,12.53 C120.82,12.53 120.38,11.72 118.53,12.05 C116.49,12.41 112.12,15.72 110.73,23.89 C109.34,32.06 107.97,57.31 108.92,58.96 C110.67,62.03 114.26,64.48 114.34,66.21 C114.4,67.51 114,97.57 113.72,99.72 C113.44,101.86 111.9,107.71 111.7,109.2 C111.51,110.66 112.37,111.8 113.28,111.88 C114.77,112.02 119.25,112.06 119.25,112.06 L120.82,12.53 Z" fill="#9C9C9C"/>
  <path d="M21.64,48.95 C21.64,48.95 21.19,28.86 21.15,27.92 C21.11,27.15 20.65,26.12 19.46,26.23 C18.77,26.3 18.54,27.05 18.54,27.76 C18.54,28.99 18.41,44.49 18.43,45.65 C18.45,47.33 16.54,46.96 16.58,45.73 C16.62,44.5 16.54,28.71 16.48,27.64 C16.43,26.83 16.02,26.26 15.35,26.26 C14.69,26.26 14.14,26.73 14.03,27.6 C13.78,29.45 13.84,44.72 13.8,45.84 C13.75,47.22 12.1,47.17 12.1,45.69 C12.1,44.21 12.06,28.78 12.06,27.55 C12.06,26.9 11.85,26.11 10.97,26.15 C10.12,26.19 9.86,26.91 9.82,27.45 C9.74,28.6 9.15,44.42 9.1,45.45 C9,47.07 7.33,47.13 7.33,45.37 C7.33,43.6 7.74,28.96 7.78,27.73 C7.81,26.96 7.51,26.08 6.71,26.12 C5.91,26.16 5.45,26.54 5.14,27.77 C4.82,29.06 4.48,36.54 4.13,40.86 C3.95,43.12 2.89,52.74 4.03,55.27 C5.68,58.91 8.91,59.57 8.91,59.57 C8.91,59.57 8.34,95.27 8.02,97.61 C7.56,100.99 5.66,105.81 5.86,108.27 C5.97,109.63 6.83,110.4 8.25,110.47 C9.67,110.54 12.51,110.91 13.31,110.69 C13.66,110.6 13.8,88.5 13.8,88.5 L14.15,53.78 L21.64,48.95 Z" fill="#9C9C9C"/>
  <path d="M6.12,51.03 L21.58,52.88 C21.58,52.88 21.54,55.79 20.27,57.41 C18.67,59.44 16.82,59.67 16.82,59.67 C16.82,59.67 16.61,96.6 16.94,99.18 C17.28,101.75 19.46,108.06 18.76,109.41 C18.14,110.6 16.63,110.9 13.36,110.79 C9.92,110.68 8.94,110.76 8.81,108.43 C8.68,106.1 10.77,101.82 10.87,98.85 C10.97,95.88 11.34,58.14 11.34,58.14 C11.34,58.14 7.6,57.7 6.21,54.5 C5.14,52 6.12,51.03 6.12,51.03 Z" fill="#C8C8C8"/>
  <path d="M118.42,62.2 L113.39,61.11 C113.39,61.11 116.77,63.95 116.83,66.14 C116.9,68.33 117.02,99.25 116.69,101.11 C116.36,102.97 113.71,110.07 114.92,111.35 C115.75,112.22 118.48,112.04 120,112.04 C121.52,112.04 122.78,111.97 123.45,111.05 C124.11,110.12 123.81,107.64 123.46,105.78 C123.06,103.62 122.59,101.67 122.59,100.72 C122.59,99 121.46,58.9 121.46,58.9 L118.42,62.2 Z" fill="#C8C8C8"/>
  <path d="M120.29,12.33 C118.9,12.37 115.56,13.84 113.78,20.3 C112.39,25.34 112.06,31.39 111.72,42.12 C111.31,55.03 111.85,59.09 112.25,59.42 C112.65,59.75 118.88,62.34 118.88,62.34 L121.46,58.89 C121.46,58.89 121.06,17.07 121.06,15.35 C121.06,13.63 121.31,12.3 120.29,12.33 Z" fill="#E0E0E0"/>
  <path d="M5.69,49.05 C5.69,49.05 5.65,52.03 5.69,52.31 C5.73,52.59 12.03,53.12 14.51,53.16 C16.99,53.2 21.6,52.91 21.6,52.91 C21.6,52.91 21.68,51.91 21.68,50.76 C21.68,49.76 21.65,48.93 21.65,48.93 L5.69,49.05 Z" fill="#E0E0E0"/>
  <path d="M7.11,55.12 C9.11,55.59 13.46,53.75 12.82,53.03 C12.13,52.25 5.77,51.62 5.69,52.22 C5.61,52.81 6.05,54.87 7.11,55.12 Z" fill="#FDFDFD"/>
  <path d="M16.57,108.15 C17.09,107.19 16.69,104.3 16.45,102.78 C16.21,101.26 16,100.08 15.35,100.17 C14.81,100.25 14.81,100.85 14.81,102.12 C14.81,103.38 14.91,105.43 14.43,105.89 C13.95,106.35 12.2,107.33 12.38,108.28 C12.56,109.22 13.8,109.18 14.71,109.14 C15.28,109.11 16.15,108.93 16.57,108.15 Z" fill="#FDFDFD"/>
  <path d="M121.12,104.02 C120.53,103.98 120.49,105.02 120.49,106.13 C120.49,107.23 120.16,108.05 119.67,108.38 C119.18,108.71 117.89,109.4 117.97,110.04 C118.05,110.67 118.69,110.82 120.51,110.74 C122.33,110.66 122.29,109.37 122.23,108.06 C122.17,106.75 121.98,104.08 121.12,104.02 Z" fill="#FDFDFD"/>
  <path d="M112.24,59.07 C111.75,59.28 113.25,61.14 114.95,62.6 C116.71,64.11 117.45,64.58 119.25,64.48 C121.05,64.38 121.97,59.49 120.85,59.06 C119.72,58.63 119.4,60.42 117.94,60.67 C116.49,60.93 113.14,58.68 112.24,59.07 Z" fill="#FDFDFD"/>
  <path d="M26.99,50.52 L102.06,48.02 C102.06,48.02 114.09,70.04 97.86,92.24 C82.01,113.93 48.7,111.43 33.88,93.65 C17.27,73.71 26.99,50.52 26.99,50.52 Z" fill="#D4D4D4"/>
  <path d="M63.95,23.89 C39.99,24.06 25.66,40.5 25.31,62.18 C24.96,84.04 41.74,104.31 65.87,104.31 C91.05,104.31 105.21,83.86 105.38,62.35 C105.54,43.28 88.77,23.71 63.95,23.89 Z" fill="#F6F6F6"/>
  <path d="M36.87,62.84 L39.12,56.51 C39.12,56.51 45.29,38.15 64.84,38.25 C83.06,38.35 89.81,55.65 89.81,55.65 L91.88,62.36 L92.98,58.58 L90.38,49.56 L81.58,39.33 L66.75,34.73 L54.37,36.47 L44.24,42.9 L37.49,53.34 L36.87,62.84 Z" fill="#D5D5D5"/>
  <path d="M64.66,92.46 C48.65,92.46 36.34,80.6 35.25,64.01 C34.73,56.1 37.48,48.53 43,42.71 C48.61,36.77 56.49,33.4 64.66,33.49 C73.25,33.57 80.63,36.67 86.02,42.45 C91.52,48.35 94.38,56.47 93.87,64.71 C92.9,80.45 80.92,92.11 65.38,92.46 C65.13,92.45 64.89,92.46 64.66,92.46 Z M64.39,35.98 C57.02,35.98 49.89,39.05 44.81,44.42 C39.78,49.74 37.27,56.64 37.74,63.84 C38.75,79.29 50.32,90.26 65.31,89.94 C79.52,89.63 90.47,78.95 91.36,64.54 C91.82,57.09 89.13,49.46 84.18,44.13 C79.27,38.86 72.51,36.04 64.63,35.97 C64.55,35.98 64.47,35.98 64.39,35.98 Z" fill="#FFFFFF"/>
</svg>
